X: 33499
T: Railway Station, The
R: reel
M: 4/4
K: Dmixolydian
|:fe|d2 BG dBBG|d2 ed cBAG|cBcd edef|gfef d2 ge|
d2 BG dBBG|d2 ed cBAG|c2 ec cfge|1 dcBA G2:|2 dcBA G4||
|:g2 gd edBd|g2 gd edBG|cBcd edef|gfef d4|
g2 gd edBd|g2 gd edBG|c2 ec cfge|1 dcBA G4:|2 dcBA G2||

